X:1
T:Fatima Ave / Treze de Maio
C:Unknown
O:Portugal
Z:abc-transcription www.GodSongs.net
M:3/4
L:1/4
K:Gmaj
D | "G" G G B | "G" d d B | "G" d d B | "D" A A B |
"C" c c A | "G" B B G | "D" A A D | "G" G G D |
"G" B2 A | "G" G2 G | "Am" A "G" B "D" c | "D/A" A2 D |
"C" d2 c | "G" B2 G | "Am" A D B | "G" G2 z |]

